X: 29836
T: O'Dea's
R: jig
M: 6/8
K: Gmajor
~G3 GBd|BGD ~E3|DGB d2 d|edb def|~g3 ged|edg edB|~e3 edB|gdB ABA:|
|:C3 CBA|Bde d2 e|dBG GBd|gdB ABA|GBd ~g3|ged ede|~e3 edB|gdB ABA:|
|:~e3 edB|ded d2 e|

